images/mid-light.svg

<svg fill="none" height="41" viewBox="0 0 34 41" width="34" xmlns="http://www.w3.org/2000/svg" xmlns:xlink="http://www.w3.org/1999/xlink"><filter id="a" color-interpolation-filters="sRGB" filterUnits="userSpaceOnUse" height="41.929" width="37" x="-1" y=".035515"><feFlood flood-opacity="0" result="BackgroundImageFix"/><feBlend in="SourceGraphic" in2="BackgroundImageFix" mode="normal" result="shape"/><feColorMatrix in="SourceAlpha" result="hardAlpha" type="matrix" values="0 0 0 0 0 0 0 0 0 0 0 0 0 0 0 0 0 0 127 0"/><feOffset dx="2" dy="2"/><feGaussianBlur stdDeviation="5"/><feComposite in2="hardAlpha" k2="-1" k3="1" operator="arithmetic"/><feColorMatrix type="matrix" values="0 0 0 0 0.815479 0 0 0 0 0.82293 0 0 0 0 0.904885 0 0 0 0.6 0"/><feBlend in2="shape" mode="normal" result="effect1_innerShadow"/><feColorMatrix in="SourceAlpha" result="hardAlpha" type="matrix" values="0 0 0 0 0 0 0 0 0 0 0 0 0 0 0 0 0 0 127 0"/><feOffset dx="-1"/><feGaussianBlur stdDeviation=".5"/><feComposite in2="hardAlpha" k2="-1" k3="1" operator="arithmetic"/><feColorMatrix type="matrix" values="0 0 0 0 0.97 0 0 0 0 0.97 0 0 0 0 0.97 0 0 0 0.2 0"/><feBlend in2="effect1_innerShadow" mode="normal" result="effect2_innerShadow"/></filter><filter id="b" color-interpolation-filters="sRGB" filterUnits="userSpaceOnUse" height="46" width="21" x="15" y="-3"><feFlood flood-opacity="0" result="BackgroundImageFix"/><feBlend in="SourceGraphic" in2="BackgroundImageFix" mode="normal" result="shape"/><feColorMatrix in="SourceAlpha" result="hardAlpha" type="matrix" values="0 0 0 0 0 0 0 0 0 0 0 0 0 0 0 0 0 0 127 0"/><feOffset dx="2" dy="2"/><feGaussianBlur stdDeviation="8"/><feComposite in2="hardAlpha" k2="-1" k3="1" operator="arithmetic"/><feColorMatrix type="matrix" values="0 0 0 0 0.783083 0 0 0 0 0.767481 0 0 0 0 0.76025 0 0 0 0.3 0"/><feBlend in2="shape" mode="normal" result="effect1_innerShadow"/><feColorMatrix in="SourceAlpha" result="hardAlpha" type="matrix" values="0 0 0 0 0 0 0 0 0 0 0 0 0 0 0 0 0 0 127 0"/><feOffset dx="-1" dy="1"/><feGaussianBlur stdDeviation=".5"/><feComposite in2="hardAlpha" k2="-1" k3="1" operator="arithmetic"/><feColorMatrix type="matrix" values="0 0 0 0 0.97 0 0 0 0 0.97 0 0 0 0 0.97 0 0 0 0.5 0"/><feBlend in2="effect1_innerShadow" mode="normal" result="effect2_innerShadow"/><feGaussianBlur result="effect3_foregroundBlur" stdDeviation="1"/></filter><filter id="c" color-interpolation-filters="sRGB" filterUnits="userSpaceOnUse" height="26.929" width="37" x="-1" y="-.964485"><feFlood flood-opacity="0" result="BackgroundImageFix"/><feBlend in="SourceGraphic" in2="BackgroundImageFix" mode="normal" result="shape"/><feColorMatrix in="SourceAlpha" result="hardAlpha" type="matrix" values="0 0 0 0 0 0 0 0 0 0 0 0 0 0 0 0 0 0 127 0"/><feOffset dx="2" dy="2"/><feGaussianBlur stdDeviation="3"/><feComposite in2="hardAlpha" k2="-1" k3="1" operator="arithmetic"/><feColorMatrix type="matrix" values="0 0 0 0 0.858292 0 0 0 0 0.848099 0 0 0 0 0.843375 0 0 0 0.6 0"/><feBlend in2="shape" mode="normal" result="effect1_innerShadow"/><feColorMatrix in="SourceAlpha" result="hardAlpha" type="matrix" values="0 0 0 0 0 0 0 0 0 0 0 0 0 0 0 0 0 0 127 0"/><feOffset dx="-2"/><feGaussianBlur stdDeviation=".5"/><feComposite in2="hardAlpha" k2="-1" k3="1" operator="arithmetic"/><feColorMatrix type="matrix" values="0 0 0 0 0.99 0 0 0 0 0.99 0 0 0 0 0.99 0 0 0 0.8 0"/><feBlend in2="effect1_innerShadow" mode="normal" result="effect2_innerShadow"/><feGaussianBlur result="effect3_foregroundBlur" stdDeviation=".5"/></filter><radialGradient id="d" cx="0" cy="0" gradientTransform="matrix(-33.28753802 -75.17072342 2442.20067095 -1081.46954022 25.3048 24.3353)" gradientUnits="userSpaceOnUse" r="1"><stop offset="0" stop-color="#eae8e8"/><stop offset="1" stop-color="#eeedec"/></radialGradient><radialGradient id="e" cx="0" cy="0" gradientTransform="matrix(-46.00003342 -44.00007812 1044.24444772 -1091.7089593 37.5 48.5002)" gradientUnits="userSpaceOnUse" r="1"><stop offset="0" stop-color="#e8e6e6"/><stop offset="1" stop-color="#d6d3d1"/></radialGradient><radialGradient id="f" cx="0" cy="0" gradientTransform="matrix(-39.99967024 -17.45049057 380.49391047 -872.16063555 30.4998 17.9502)" gradientUnits="userSpaceOnUse" r="1"><stop offset="0" stop-color="#f7f7f7"/><stop offset="1" stop-color="#eae8e8"/></radialGradient><mask id="g" height="40" maskUnits="userSpaceOnUse" width="34" x="0" y="0"><path d="m0 13.9767c0-1.2459.580524-2.4206 1.5702-3.1774l13-9.941217c1.4342-1.096759 3.4254-1.096758 4.8596 0l13 9.941217c.9897.7568 1.5702 1.9315 1.5702 3.1774v12.0466c0 1.2459-.5805 2.4206-1.5702 3.1774l-13 9.9412c-1.4342 1.0968-3.4254 1.0968-4.8596 0l-13-9.9412c-.989676-.7568-1.5702-1.9315-1.5702-3.1774z" fill="#171100" opacity=".92"/></mask><g mask="url(#g)"><g filter="url(#a)"><path d="m0 13.9767c0-1.2459.580524-2.4206 1.5702-3.1774l13-9.941217c1.4342-1.096759 3.4254-1.096758 4.8596 0l13 9.941217c.9897.7568 1.5702 1.9315 1.5702 3.1774v12.0466c0 1.2459-.5805 2.4206-1.5702 3.1774l-13 9.9412c-1.4342 1.0968-3.4254 1.0968-4.8596 0l-13-9.9412c-.989676-.7568-1.5702-1.9315-1.5702-3.1774z" fill="url(#d)" fill-opacity=".9"/></g><g filter="url(#b)"><path d="m34 27.0117v-14.0234c0-.6229-.2903-1.2103-.7851-1.5887l-16.2149-12.3996v42l16.2149-12.3996c.4948-.3784.7851-.9658.7851-1.5887z" fill="url(#e)" fill-opacity=".9"/></g><g filter="url(#c)"><path d="m14.5702.858083-14.5702 11.141917 14.5702 11.1419c1.4342 1.0968 3.4254 1.0968 4.8596 0l14.5702-11.1419-14.5702-11.141917c-1.4342-1.096758-3.4254-1.096759-4.8596 0z" fill="url(#f)" fill-opacity=".9"/></g></g></svg>

<svg width="34" height="41" viewBox="0 0 34 41" fill="none" xmlns="http://www.w3.org/2000/svg">
<mask id="mask0" mask-type="alpha" maskUnits="userSpaceOnUse" x="0" y="0" width="34" height="40">
<path opacity="0.92" d="M0 13.9767C0 12.7308 0.580524 11.5561 1.5702 10.7993L14.5702 0.858083C16.0044 -0.238676 17.9956 -0.238675 19.4298 0.858083L32.4298 10.7993C33.4195 11.5561 34 12.7308 34 13.9767V26.0233C34 27.2692 33.4195 28.4439 32.4298 29.2007L19.4298 39.1419C17.9956 40.2387 16.0044 40.2387 14.5702 39.1419L1.5702 29.2007C0.580524 28.4439 0 27.2692 0 26.0233V13.9767Z" fill="#171100"/>
</mask>
<g mask="url(#mask0)">
<g filter="url(#filter0_ii)">
<path d="M0 13.9767C0 12.7308 0.580524 11.5561 1.5702 10.7993L14.5702 0.858083C16.0044 -0.238676 17.9956 -0.238675 19.4298 0.858083L32.4298 10.7993C33.4195 11.5561 34 12.7308 34 13.9767V26.0233C34 27.2692 33.4195 28.4439 32.4298 29.2007L19.4298 39.1419C17.9956 40.2387 16.0044 40.2387 14.5702 39.1419L1.5702 29.2007C0.580524 28.4439 0 27.2692 0 26.0233V13.9767Z" fill="url(#paint0_radial)" fill-opacity="0.9"/>
</g>
<g filter="url(#filter1_iif)">
<path d="M34 27.0117V12.9883C34 12.3654 33.7097 11.778 33.2149 11.3996L17 -1V41L33.2149 28.6004C33.7097 28.222 34 27.6346 34 27.0117Z" fill="url(#paint1_radial)" fill-opacity="0.9"/>
</g>
<g filter="url(#filter2_iif)">
<path d="M14.5702 0.858083L0 12L14.5702 23.1419C16.0044 24.2387 17.9956 24.2387 19.4298 23.1419L34 12L19.4298 0.858083C17.9956 -0.238675 16.0044 -0.238676 14.5702 0.858083Z" fill="url(#paint2_radial)" fill-opacity="0.9"/>
</g>
</g>
<defs>
<filter id="filter0_ii" x="-1" y="0.0355225" width="37" height="41.929" filterUnits="userSpaceOnUse" color-interpolation-filters="sRGB">
<feFlood flood-opacity="0" result="BackgroundImageFix"/>
<feBlend mode="normal" in="SourceGraphic" in2="BackgroundImageFix" result="shape"/>
<feColorMatrix in="SourceAlpha" type="matrix" values="0 0 0 0 0 0 0 0 0 0 0 0 0 0 0 0 0 0 127 0" result="hardAlpha"/>
<feOffset dx="2" dy="2"/>
<feGaussianBlur stdDeviation="5"/>
<feComposite in2="hardAlpha" operator="arithmetic" k2="-1" k3="1"/>
<feColorMatrix type="matrix" values="0 0 0 0 0.815479 0 0 0 0 0.82293 0 0 0 0 0.904885 0 0 0 0.6 0"/>
<feBlend mode="normal" in2="shape" result="effect1_innerShadow"/>
<feColorMatrix in="SourceAlpha" type="matrix" values="0 0 0 0 0 0 0 0 0 0 0 0 0 0 0 0 0 0 127 0" result="hardAlpha"/>
<feOffset dx="-1"/>
<feGaussianBlur stdDeviation="0.5"/>
<feComposite in2="hardAlpha" operator="arithmetic" k2="-1" k3="1"/>
<feColorMatrix type="matrix" values="0 0 0 0 0.97 0 0 0 0 0.97 0 0 0 0 0.97 0 0 0 0.2 0"/>
<feBlend mode="normal" in2="effect1_innerShadow" result="effect2_innerShadow"/>
</filter>
<filter id="filter1_iif" x="15" y="-3" width="21" height="46" filterUnits="userSpaceOnUse" color-interpolation-filters="sRGB">
<feFlood flood-opacity="0" result="BackgroundImageFix"/>
<feBlend mode="normal" in="SourceGraphic" in2="BackgroundImageFix" result="shape"/>
<feColorMatrix in="SourceAlpha" type="matrix" values="0 0 0 0 0 0 0 0 0 0 0 0 0 0 0 0 0 0 127 0" result="hardAlpha"/>
<feOffset dx="2" dy="2"/>
<feGaussianBlur stdDeviation="8"/>
<feComposite in2="hardAlpha" operator="arithmetic" k2="-1" k3="1"/>
<feColorMatrix type="matrix" values="0 0 0 0 0.783083 0 0 0 0 0.767481 0 0 0 0 0.76025 0 0 0 0.3 0"/>
<feBlend mode="normal" in2="shape" result="effect1_innerShadow"/>
<feColorMatrix in="SourceAlpha" type="matrix" values="0 0 0 0 0 0 0 0 0 0 0 0 0 0 0 0 0 0 127 0" result="hardAlpha"/>
<feOffset dx="-1" dy="1"/>
<feGaussianBlur stdDeviation="0.5"/>
<feComposite in2="hardAlpha" operator="arithmetic" k2="-1" k3="1"/>
<feColorMatrix type="matrix" values="0 0 0 0 0.97 0 0 0 0 0.97 0 0 0 0 0.97 0 0 0 0.5 0"/>
<feBlend mode="normal" in2="effect1_innerShadow" result="effect2_innerShadow"/>
<feGaussianBlur stdDeviation="1" result="effect3_foregroundBlur"/>
</filter>
<filter id="filter2_iif" x="-1" y="-0.964478" width="37" height="26.929" filterUnits="userSpaceOnUse" color-interpolation-filters="sRGB">
<feFlood flood-opacity="0" result="BackgroundImageFix"/>
<feBlend mode="normal" in="SourceGraphic" in2="BackgroundImageFix" result="shape"/>
<feColorMatrix in="SourceAlpha" type="matrix" values="0 0 0 0 0 0 0 0 0 0 0 0 0 0 0 0 0 0 127 0" result="hardAlpha"/>
<feOffset dx="2" dy="2"/>
<feGaussianBlur stdDeviation="3"/>
<feComposite in2="hardAlpha" operator="arithmetic" k2="-1" k3="1"/>
<feColorMatrix type="matrix" values="0 0 0 0 0.858292 0 0 0 0 0.848099 0 0 0 0 0.843375 0 0 0 0.6 0"/>
<feBlend mode="normal" in2="shape" result="effect1_innerShadow"/>
<feColorMatrix in="SourceAlpha" type="matrix" values="0 0 0 0 0 0 0 0 0 0 0 0 0 0 0 0 0 0 127 0" result="hardAlpha"/>
<feOffset dx="-2"/>
<feGaussianBlur stdDeviation="0.5"/>
<feComposite in2="hardAlpha" operator="arithmetic" k2="-1" k3="1"/>
<feColorMatrix type="matrix" values="0 0 0 0 0.99 0 0 0 0 0.99 0 0 0 0 0.99 0 0 0 0.8 0"/>
<feBlend mode="normal" in2="effect1_innerShadow" result="effect2_innerShadow"/>
<feGaussianBlur stdDeviation="0.5" result="effect3_foregroundBlur"/>
</filter>
<radialGradient id="paint0_radial" cx="0" cy="0" r="1" gradientUnits="userSpaceOnUse" gradientTransform="translate(25.3048 24.3353) rotate(-113.885) scale(82.2113 2670.94)">
<stop stop-color="#EAE8E8"/>
<stop offset="1" stop-color="#EEEDEC"/>
</radialGradient>
<radialGradient id="paint1_radial" cx="0" cy="0" r="1" gradientUnits="userSpaceOnUse" gradientTransform="translate(37.5 48.5002) rotate(-136.273) scale(63.6554 1510.72)">
<stop stop-color="#E8E6E6"/>
<stop offset="1" stop-color="#D6D3D1"/>
</radialGradient>
<radialGradient id="paint2_radial" cx="0" cy="0" r="1" gradientUnits="userSpaceOnUse" gradientTransform="translate(30.4998 17.9502) rotate(-156.43) scale(43.6405 951.546)">
<stop stop-color="#F7F7F7"/>
<stop offset="1" stop-color="#EAE8E8"/>
</radialGradient>
</defs>
</svg>
